X: 110
T:If The Life Of A Man..aka. BF13.109
M:6/8
Q:100
S:J.Lishman()MS,c1825,Lakes,Browne Coll.
R:Air
O:England
A:Lakes
N:The MS has Sharp signs on d & Middle G.
Z:vmp.Chris Partington
K:D
F/G/|A>BA A>BA|d2AA2F/G/|A>BA A>BA|e2AA2F/G/|!
A>BA A>BA|(dcd e2-g|fed ABc|d2DD3||!
f>ed f>ed|e2AA2d/e/|f>ed f>ed|f2-"NB"aa3|!
f>ed f>ed|g>fe eag|f>ed A>Bc|d2DD2|]
W:NB unclear in MS ||
